X: 21212
T: LADY BETTY BOYLE'S REEL
R: reel
B: K\"ohler's Violin Repository, v.2, 1885 p.121 #2
F: http://www.archive.org/details/klersviolinrepos02rugg
Z: 2012 John Chambers <jc:trillian.mit.edu>
M: C|
L: 1/8
K: Bb
ud | B2 (D/E/F) (E/F/G) (F/G/A) | (B/c/d/e/ f)B Accd | BfAf | GBFB | EGFA BB,B, :|
uf | (d/c/B) (df) gBfB | (ec)dB (Ac)cf | (d/c/B) (Af) eGFd | GcFA BB,B, ||
 f | (d/c/B) (df) gBfB | (e/d/c) (d/c/B) Accd | ecGE dBFD | EGFA "Fine."BB,B, "^D.C."|]

%%sep 2 1 500

